X: 39
T: Calliope House
I: Calliope House	J-39	E	jig
C: Dave Richardson
M: 6/8
R: jig
K: E
B |\
"E"eBB gBB | fBB gBB | "A"cff f2e | "B"fge cec | "E"BcB B2G |
B2c e2f | "A"gbg [1 gfe | "B"f3 f2 :|2 "B"fec | "E"e3 ega |]
|:\
"E"b3 gbb | fbb gbb | "A"a3 gag | "B"fgf fec | "E"BcB B2G |
"C#m"B2c e2f | "A"gbg [1 gfe | "B"f3 fga :|2 "B"fec | "E"e3 e2 |]
